cssgg/arrows-exchange-alt.svg

<svg
  width="24"
  height="24"
  viewBox="0 0 24 24"
  fill="none"
  xmlns="http://www.w3.org/2000/svg"
>
  <path
    d="M4.99255 11.0159C4.44027 11.0159 3.99255 10.5682 3.99255 10.0159C3.99255 9.6585 4.18004 9.3449 4.46202 9.16807L7.14964 6.48045C7.54016 6.08993 8.17333 6.08993 8.56385 6.48045C8.95438 6.87098 8.95438 7.50414 8.56385 7.89467L7.44263 9.0159L14.9926 9.01589C15.5448 9.01589 15.9926 9.46361 15.9926 10.0159C15.9926 10.5682 15.5448 11.0159 14.9926 11.0159L5.042 11.0159C5.03288 11.016 5.02376 11.016 5.01464 11.0159H4.99255Z"
    fill="currentColor"
  />
  <path
    d="M19.0074 12.9841C19.5597 12.9841 20.0074 13.4318 20.0074 13.9841C20.0074 14.3415 19.82 14.6551 19.538 14.8319L16.8504 17.5195C16.4598 17.9101 15.8267 17.9101 15.4361 17.5195C15.0456 17.129 15.0456 16.4958 15.4361 16.1053L16.5574 14.9841H9.00745C8.45516 14.9841 8.00745 14.5364 8.00745 13.9841C8.00745 13.4318 8.45516 12.9841 9.00745 12.9841L18.958 12.9841C18.9671 12.984 18.9762 12.984 18.9854 12.9841H19.0074Z"
    fill="currentColor"
  />
</svg>

<svg viewBox="0 0 24 24" xmlns="http://www.w3.org/2000/svg"><g><path d="M4.99 11.01c-.56 0-1-.45-1-1 0-.36.18-.68.46-.85l2.68-2.69c.39-.4 1.02-.4 1.41 0 .39.39.39 1.02 0 1.41L7.41 9l7.54-.01c.55 0 1 .44 1 1 0 .55-.45 1-1 1H4.99c-.01 0-.02 0-.03 0h-.03Z"/><path d="M19 12.98c.55 0 1 .44 1 1 0 .35-.19.67-.47.84l-2.69 2.68c-.4.39-1.03.39-1.42 0 -.4-.4-.4-1.03 0-1.42l1.12-1.13H8.99c-.56 0-1-.45-1-1 0-.56.44-1 1-1h9.95c0-.01.01-.01.02 0h.02Z"/></g></svg>
